round/svg/translate.svg

<svg xmlns="http://www.w3.org/2000/svg" width="24" height="24"><path fill="none" d="M0 0h24v24H0V0z"/><g fill="currentColor"><path d="M12.65 15.67c.14-.36.05-.77-.23-1.05l-2.09-2.06.03-.03A17.52 17.52 0 0 0 14.07 6h1.94c.54 0 .99-.45.99-.99v-.02c0-.54-.45-.99-.99-.99H10V3c0-.55-.45-1-1-1s-1 .45-1 1v1H1.99c-.54 0-.99.45-.99.99 0 .55.45.99.99.99h10.18A15.66 15.66 0 0 1 9 11.35c-.81-.89-1.49-1.86-2.06-2.88A.885.885 0 0 0 6.16 8c-.69 0-1.13.75-.79 1.35.63 1.13 1.4 2.21 2.3 3.21L3.3 16.87a.99.99 0 0 0 0 1.42c.39.39 1.02.39 1.42 0L9 14l2.02 2.02c.51.51 1.38.32 1.63-.35zM17.5 10c-.6 0-1.14.37-1.35.94l-3.67 9.8c-.24.61.22 1.26.87 1.26.39 0 .74-.24.88-.61l.89-2.39h4.75l.9 2.39c.14.36.49.61.88.61.65 0 1.11-.65.88-1.26l-3.67-9.8c-.22-.57-.76-.94-1.36-.94zm-1.62 7l1.62-4.33L19.12 17h-3.24z"/></g></svg>

<?xml version="1.0" encoding="utf-8"?>
<!-- Generator: Adobe Illustrator 19.1.0, SVG Export Plug-In . SVG Version: 6.00 Build 0)  -->
<svg version="1.1" xmlns="http://www.w3.org/2000/svg" xmlns:xlink="http://www.w3.org/1999/xlink" x="0px" y="0px" width="24px"
	 height="24px" viewBox="0 0 24 24" enable-background="new 0 0 24 24" xml:space="preserve">
<g id="Bounding_Boxes">
	<g id="ui_x5F_spec_x5F_header_copy_3">
	</g>
	<path fill="none" d="M0,0h24v24H0V0z"/>
</g>
<g id="Rounded" fill="currentColor">
	<g id="ui_x5F_spec_x5F_header_copy_5">
	</g>
	<path d="M12.65,15.67c0.14-0.36,0.05-0.77-0.23-1.05l-2.09-2.06l0.03-0.03c1.74-1.94,2.98-4.17,3.71-6.53h1.94
		C16.55,6,17,5.55,17,5.01V4.99C17,4.45,16.55,4,16.01,4H10V3c0-0.55-0.45-1-1-1h0C8.45,2,8,2.45,8,3v1H1.99C1.45,4,1,4.45,1,4.99v0
		c0,0.55,0.45,0.99,0.99,0.99h10.18C11.5,7.92,10.44,9.75,9,11.35c-0.81-0.89-1.49-1.86-2.06-2.88C6.78,8.18,6.49,8,6.16,8h0
		C5.47,8,5.03,8.75,5.37,9.35c0.63,1.13,1.4,2.21,2.3,3.21L3.3,16.87c-0.4,0.39-0.4,1.03,0,1.42l0,0c0.39,0.39,1.02,0.39,1.42,0
		L9,14l2.02,2.02C11.53,16.53,12.4,16.34,12.65,15.67L12.65,15.67z M17.5,10L17.5,10c-0.6,0-1.14,0.37-1.35,0.94l-3.67,9.8
		C12.24,21.35,12.7,22,13.35,22h0c0.39,0,0.74-0.24,0.88-0.61L15.12,19h4.75l0.9,2.39c0.14,0.36,0.49,0.61,0.88,0.61h0
		c0.65,0,1.11-0.65,0.88-1.26l-3.67-9.8C18.64,10.37,18.1,10,17.5,10z M15.88,17l1.62-4.33L19.12,17H15.88z"/>
</g>
</svg>
